X: 82
T: THEY ARE GONE
B: O'Neill's 82
M: C
L: 1/8
Z: Transcribed by John Chambers <jc@trillian.mit.edu>
N: "Slow and with feeling"
N: "Collected by F.O'Neill"
K:G
(GB) \
| d2 (ec) d2 (G>A) | B2 (c>B) (B<A) zG \
| G>A B>c (d<g) GA | (B>c) (BG) (A<G) ((3def) ||
|| vg>vg (a>f g2) ud>ud | g2 (f>e) (e<d) zB \
| c>d e>f g2 G>A | B>c BG A<G ||


